X: 14605
T: Gan Ainm
R: polka
M: 2/4
K: Dmajor
|:FA AA|BA FA|dc ed|c2 B2|gf af|
gf ed|1 cA Bc|B2A2:|2 cA Bc|d2 d2||
|:f2 fe|d2 dA|FA ed|c2 B2|
g2 gf|e2 ed|cA Bc|1 B2 A2:|2 d2 d2||

